X:13
T:Paddy Fahey's
M:6/8
R:jig
C:Martin Hayes
K:DDor
EAB c2d | dcd e2 a | age cde | dBA GED |
EAB c2d | dcd e2 a | age cde | dBG Ace ::
a3 gab  | afd cde  | BcA d2e | fed cde |
f2g agf | dBe dBA  | FGD EAG | EDC D3 :|
